%
(Header)
(Generated by gcodetools from Inkscape.)
(Using default header. To add your own header create file "header" in the output dir.)
M3
(Header end.)
G21 (All units in mm)

(Start cutting path id: path878)
(Change tool to Cylindrical cutter)

G00 Z1.000000
G00 X225.084714 Y18.341814

G01 Z-1.000000 F100.0(Penetrate)
G03 X224.583209 Y25.476405 Z-1.000000 I-74.297190 J-1.637587 F400.000000
G03 X223.604592 Y30.793349 Z-1.000000 I-42.165065 J-5.012210
G02 X223.291344 Y35.904088 Z-1.000000 I13.535594 J3.394595
G02 X224.313970 Y36.517843 Z-1.000000 I0.751376 J-0.093110
G02 X225.663449 Y34.996558 Z-1.000000 I-0.790731 J-2.060611
G02 X227.882313 Y22.357572 Z-1.000000 I-85.220931 J-21.475401
G01 X228.488658 Y16.357545 Z-1.000000
G01 X232.740043 Y24.557581 Z-1.000000
G02 X237.054318 Y31.995179 Z-1.000000 I80.677937 J-41.828209
G02 X238.118744 Y32.754904 Z-1.000000 I1.488951 J-0.960593
G02 X238.801279 Y32.269236 Z-1.000000 I0.132370 J-0.536409
G02 X238.828785 Y26.060108 Z-1.000000 I-35.361053 J-3.261273
G03 X239.232178 Y15.537101 Z-1.000000 I43.320422 J-3.608576
G03 X240.688269 Y14.518539 Z-1.000000 I1.222019 J0.196881
G03 X242.991670 Y16.050897 Z-1.000000 I-0.676905 J3.514891
G03 X245.644955 Y21.422786 Z-1.000000 I-19.506002 J12.975612
G03 X247.020054 Y27.382539 Z-1.000000 I-27.920619 J9.580662
G03 X246.698855 Y32.034990 Z-1.000000 I-12.133235 J1.499651
G02 X246.772506 Y34.460864 Z-1.000000 I4.083920 J1.090065
G02 X247.738996 Y35.157627 Z-1.000000 I0.966490 J-0.321935
G02 X249.616770 Y33.689177 Z-1.000000 I-0.000000 J-1.934824
G02 X249.721587 Y27.175070 Z-1.000000 I-14.026071 J-3.483588
G02 X242.212353 Y11.837250 Z-1.000000 I-34.555351 J7.410803
G02 X237.090256 Y12.157525 Z-1.000000 I-2.442599 J2.054482
G02 X236.686640 Y13.237844 Z-1.000000 I2.249804 J1.456101
G02 X236.042252 Y19.557558 Z-1.000000 I80.508369 J11.401736
G01 X235.641464 Y25.957587 Z-1.000000
G01 X232.249382 Y19.389530 Z-1.000000
G02 X227.431240 Y12.066678 Z-1.000000 I-37.075553 J19.147725
G02 X225.495584 Y11.159258 Z-1.000000 I-1.918593 J1.574406
G02 X225.364271 Y11.283991 Z-1.000000 I0.000762 J0.132289
G02 X225.084714 Y18.341814 Z-1.000000 I200.907616 J11.492300
G01 X225.084714 Y18.341814 Z-1.000000
G00 Z1.000000

(End cutting path id: path878)


(Start cutting path id: path878)
(Change tool to Cylindrical cutter)

G00 Z1.000000
G00 X225.084714 Y18.341814

G01 Z-1.000000 F100.0(Penetrate)
G03 X224.583209 Y25.476405 Z-1.000000 I-74.297190 J-1.637587 F400.000000
G03 X223.604592 Y30.793349 Z-1.000000 I-42.165065 J-5.012210
G02 X223.291344 Y35.904088 Z-1.000000 I13.535594 J3.394595
G02 X224.313970 Y36.517843 Z-1.000000 I0.751376 J-0.093110
G02 X225.663449 Y34.996558 Z-1.000000 I-0.790731 J-2.060611
G02 X227.882313 Y22.357572 Z-1.000000 I-85.220931 J-21.475401
G01 X228.488658 Y16.357545 Z-1.000000
G01 X232.740043 Y24.557581 Z-1.000000
G02 X237.054318 Y31.995179 Z-1.000000 I80.677937 J-41.828209
G02 X238.118744 Y32.754904 Z-1.000000 I1.488951 J-0.960593
G02 X238.801279 Y32.269236 Z-1.000000 I0.132370 J-0.536409
G02 X238.828785 Y26.060108 Z-1.000000 I-35.361053 J-3.261273
G03 X239.232178 Y15.537101 Z-1.000000 I43.320422 J-3.608576
G03 X240.688269 Y14.518539 Z-1.000000 I1.222019 J0.196881
G03 X242.991670 Y16.050897 Z-1.000000 I-0.676905 J3.514891
G03 X245.644955 Y21.422786 Z-1.000000 I-19.506002 J12.975612
G03 X247.020054 Y27.382539 Z-1.000000 I-27.920619 J9.580662
G03 X246.698855 Y32.034990 Z-1.000000 I-12.133235 J1.499651
G02 X246.772506 Y34.460864 Z-1.000000 I4.083920 J1.090065
G02 X247.738996 Y35.157627 Z-1.000000 I0.966490 J-0.321935
G02 X249.616770 Y33.689177 Z-1.000000 I-0.000000 J-1.934824
G02 X249.721587 Y27.175070 Z-1.000000 I-14.026071 J-3.483588
G02 X242.212353 Y11.837250 Z-1.000000 I-34.555351 J7.410803
G02 X237.090256 Y12.157525 Z-1.000000 I-2.442599 J2.054482
G02 X236.686640 Y13.237844 Z-1.000000 I2.249804 J1.456101
G02 X236.042252 Y19.557558 Z-1.000000 I80.508369 J11.401736
G01 X235.641464 Y25.957587 Z-1.000000
G01 X232.249382 Y19.389530 Z-1.000000
G02 X227.431240 Y12.066678 Z-1.000000 I-37.075553 J19.147725
G02 X225.495584 Y11.159258 Z-1.000000 I-1.918593 J1.574406
G02 X225.364271 Y11.283991 Z-1.000000 I0.000762 J0.132289
G02 X225.084714 Y18.341814 Z-1.000000 I200.907616 J11.492300
G01 X225.084714 Y18.341814 Z-1.000000
G00 Z1.000000

(End cutting path id: path878)


(Start cutting path id: path878)
(Change tool to Cylindrical cutter)

G00 Z1.000000
G00 X254.806760 Y13.121163

G01 Z-1.000000 F100.0(Penetrate)
G02 X252.823381 Y18.401188 Z-1.000000 I4.824966 J4.824971 F400.000000
G02 X255.563125 Y24.437578 Z-1.000000 I9.404714 J-0.628589
G02 X258.490963 Y26.655855 Z-1.000000 I9.508041 J-9.508059
G02 X260.410363 Y27.157589 Z-1.000000 I1.919399 J-3.420490
G03 X261.949112 Y27.485686 Z-1.000000 I0.000000 J3.772362
G03 X262.077322 Y27.902315 Z-1.000000 I-0.118118 J0.264390
G02 X261.980235 Y28.561305 Z-1.000000 I0.715167 J0.442010
G02 X262.406612 Y29.135013 Z-1.000000 I0.935373 J-0.249870
G02 X265.579670 Y29.290127 Z-1.000000 I1.726914 J-2.794201
G02 X268.197133 Y26.295734 Z-1.000000 I-2.266505 J-4.622387
G03 X268.766015 Y25.734118 Z-1.000000 I0.837152 J0.279054
G03 X272.372871 Y24.963194 Z-1.000000 I5.710916 J17.896162
G03 X275.955946 Y25.099350 Z-1.000000 I1.341770 J11.904148
G03 X276.986421 Y25.841880 Z-1.000000 I-0.281228 J1.476591
G02 X277.912317 Y26.834233 Z-1.000000 I2.485599 J-1.391019
G02 X278.996950 Y27.157588 Z-1.000000 I1.084633 J-1.657421
G02 X279.649484 Y26.597504 Z-1.000000 I-0.000000 J-0.660164
G02 X279.754733 Y22.216700 Z-1.000000 I-16.944079 J-2.598747
G01 X279.238320 Y17.275812 Z-1.000000
G01 X281.780062 Y21.113157 Z-1.000000
G02 X289.093375 Y27.536673 Z-1.000000 I15.488728 J-10.259314
G02 X291.643286 Y25.946625 Z-1.000000 I0.779202 J-1.590048
G02 X291.070662 Y24.987291 Z-1.000000 I-1.089912 J0.000000
G02 X289.138495 Y24.595998 Z-1.000000 I-1.610604 J2.986933
G03 X286.924985 Y24.113518 Z-1.000000 I-0.352395 J-3.702073
G03 X283.776571 Y21.496488 Z-1.000000 I6.077986 J-10.514473
G03 X281.197812 Y17.988573 Z-1.000000 I22.358656 J-19.138239
G03 X279.481321 Y14.643636 Z-1.000000 I18.595888 J-11.655568
G02 X277.739998 Y11.691800 Z-1.000000 I-11.005828 J4.502936
G02 X276.843219 Y11.365093 Z-1.000000 I-0.718538 J0.578179
G02 X276.020577 Y12.305850 Z-1.000000 I0.197519 J1.002778
G02 X276.369468 Y19.157553 Z-1.000000 I30.745205 J1.869176
G01 X276.959591 Y22.757568 Z-1.000000
G01 X273.301385 Y22.778749 Z-1.000000
G03 X270.286509 Y22.152873 Z-1.000000 I-0.042670 J-7.368798
G03 X269.643189 Y21.166259 Z-1.000000 I0.434889 J-0.986614
G02 X268.237495 Y16.490323 Z-1.000000 I-8.479929 J0.000001
G02 X263.993832 Y12.619332 Z-1.000000 I-9.790217 J6.471150
G02 X258.611356 Y11.422204 Z-1.000000 I-4.825594 J8.997838
G02 X254.806760 Y13.121159 Z-1.000000 I0.317990 J5.821534
G01 X254.806760 Y13.121163 Z-1.000000
G00 Z1.000000

(End cutting path id: path878)


(Start cutting path id: path878)
(Change tool to Cylindrical cutter)

G00 Z1.000000
G00 X254.806760 Y13.121163

G01 Z-1.000000 F100.0(Penetrate)
G02 X252.823381 Y18.401188 Z-1.000000 I4.824966 J4.824971 F400.000000
G02 X255.563125 Y24.437578 Z-1.000000 I9.404714 J-0.628589
G02 X258.490963 Y26.655855 Z-1.000000 I9.508041 J-9.508059
G02 X260.410363 Y27.157589 Z-1.000000 I1.919399 J-3.420490
G03 X261.949112 Y27.485686 Z-1.000000 I0.000000 J3.772362
G03 X262.077322 Y27.902315 Z-1.000000 I-0.118118 J0.264390
G02 X261.980235 Y28.561305 Z-1.000000 I0.715167 J0.442010
G02 X262.406612 Y29.135013 Z-1.000000 I0.935373 J-0.249870
G02 X265.579670 Y29.290127 Z-1.000000 I1.726914 J-2.794201
G02 X268.197133 Y26.295734 Z-1.000000 I-2.266505 J-4.622387
G03 X268.766015 Y25.734118 Z-1.000000 I0.837152 J0.279054
G03 X272.372871 Y24.963194 Z-1.000000 I5.710916 J17.896162
G03 X275.955946 Y25.099350 Z-1.000000 I1.341770 J11.904148
G03 X276.986421 Y25.841880 Z-1.000000 I-0.281228 J1.476591
G02 X277.912317 Y26.834233 Z-1.000000 I2.485599 J-1.391019
G02 X278.996950 Y27.157588 Z-1.000000 I1.084633 J-1.657421
G02 X279.649484 Y26.597504 Z-1.000000 I-0.000000 J-0.660164
G02 X279.754733 Y22.216700 Z-1.000000 I-16.944079 J-2.598747
G01 X279.238320 Y17.275812 Z-1.000000
G01 X281.780062 Y21.113157 Z-1.000000
G02 X289.093375 Y27.536673 Z-1.000000 I15.488728 J-10.259314
G02 X291.643286 Y25.946625 Z-1.000000 I0.779202 J-1.590048
G02 X291.070662 Y24.987291 Z-1.000000 I-1.089912 J0.000000
G02 X289.138495 Y24.595998 Z-1.000000 I-1.610604 J2.986933
G03 X286.924985 Y24.113518 Z-1.000000 I-0.352395 J-3.702073
G03 X283.776571 Y21.496488 Z-1.000000 I6.077986 J-10.514473
G03 X281.197812 Y17.988573 Z-1.000000 I22.358656 J-19.138239
G03 X279.481321 Y14.643636 Z-1.000000 I18.595888 J-11.655568
G02 X277.739998 Y11.691800 Z-1.000000 I-11.005828 J4.502936
G02 X276.843219 Y11.365093 Z-1.000000 I-0.718538 J0.578179
G02 X276.020577 Y12.305850 Z-1.000000 I0.197519 J1.002778
G02 X276.369468 Y19.157553 Z-1.000000 I30.745205 J1.869176
G01 X276.959591 Y22.757568 Z-1.000000
G01 X273.301385 Y22.778749 Z-1.000000
G03 X270.286509 Y22.152873 Z-1.000000 I-0.042670 J-7.368798
G03 X269.643189 Y21.166259 Z-1.000000 I0.434889 J-0.986614
G02 X268.237495 Y16.490323 Z-1.000000 I-8.479929 J0.000001
G02 X263.993832 Y12.619332 Z-1.000000 I-9.790217 J6.471150
G02 X258.611356 Y11.422204 Z-1.000000 I-4.825594 J8.997838
G02 X254.806760 Y13.121159 Z-1.000000 I0.317990 J5.821534
G01 X254.806760 Y13.121163 Z-1.000000
G00 Z1.000000

(End cutting path id: path878)


(Start cutting path id: path878)
(Change tool to Cylindrical cutter)

G00 Z1.000000
G00 X262.487466 Y13.581245

G01 Z-1.000000 F100.0(Penetrate)
G03 X264.672870 Y15.735880 Z-1.000000 I-2.558564 J4.780724 F400.000000
G03 X266.169928 Y19.621214 Z-1.000000 I-13.260223 J7.340378
G03 X266.384330 Y23.524717 Z-1.000000 I-10.924379 J2.557667
G03 X265.177734 Y25.071989 Z-1.000000 I-1.887870 J-0.228101
G03 X261.861437 Y25.238341 Z-1.000000 I-1.912297 J-4.983352
G03 X258.381601 Y23.219110 Z-1.000000 I2.061214 J-7.560284
G03 X256.895820 Y15.548750 Z-1.000000 I4.935011 J-4.935013
G03 X262.487466 Y13.581245 Z-1.000000 I3.696000 J1.574547
G01 X262.487466 Y13.581245 Z-1.000000
G00 Z1.000000

(End cutting path id: path878)


(Start cutting path id: path878)
(Change tool to Cylindrical cutter)

G00 Z1.000000
G00 X262.487466 Y13.581245

G01 Z-1.000000 F100.0(Penetrate)
G03 X264.672870 Y15.735880 Z-1.000000 I-2.558564 J4.780724 F400.000000
G03 X266.169928 Y19.621214 Z-1.000000 I-13.260223 J7.340378
G03 X266.384330 Y23.524717 Z-1.000000 I-10.924379 J2.557667
G03 X265.177734 Y25.071989 Z-1.000000 I-1.887870 J-0.228101
G03 X261.861437 Y25.238341 Z-1.000000 I-1.912297 J-4.983352
G03 X258.381601 Y23.219110 Z-1.000000 I2.061214 J-7.560284
G03 X256.895820 Y15.548750 Z-1.000000 I4.935011 J-4.935013
G03 X262.487466 Y13.581245 Z-1.000000 I3.696000 J1.574547
G01 X262.487466 Y13.581245 Z-1.000000
G00 Z1.000000

(End cutting path id: path878)


(Start cutting path id: path878)
(Change tool to Cylindrical cutter)

G00 Z1.000000
G00 X293.952675 Y13.183545

G01 Z-1.000000 F100.0(Penetrate)
G02 X293.368749 Y15.353738 Z-1.000000 I3.013392 J1.974455 F400.000000
G02 X294.601629 Y25.110119 Z-1.000000 I68.878416 J-3.747834
G01 X296.578098 Y35.010662 Z-1.000000
G01 X294.310699 Y35.464145 Z-1.000000
G02 X292.131062 Y36.443494 Z-1.000000 I1.050733 J5.253677
G02 X292.041647 Y37.004054 Z-1.000000 I0.246989 J0.326809
G02 X292.775890 Y37.521967 Z-1.000000 I1.078276 J-0.749244
G02 X296.043306 Y37.957634 Z-1.000000 I3.267416 J-12.034642
G02 X299.821102 Y37.735412 Z-1.000000 I-0.000003 J-32.222522
G02 X300.043324 Y37.485412 Z-1.000000 I-0.029514 J-0.250000
G02 X299.998463 Y37.017688 Z-1.000000 I-2.460708 J0.000000
G02 X297.979904 Y26.827561 Z-1.000000 I-1181.098550 J228.668495
G03 X296.223485 Y16.667555 Z-1.000000 I176.116684 J-35.678128
G03 X296.354786 Y15.499731 Z-1.000000 I2.310697 J-0.331498
G03 X298.818254 Y14.728582 Z-1.000000 I1.537066 J0.589823
G03 X305.978889 Y22.050782 Z-1.000000 I-14.582652 J21.423301
G02 X312.034442 Y26.922961 Z-1.000000 I10.430229 J-6.764301
G02 X318.594604 Y26.793593 Z-1.000000 I3.117812 J-8.293267
G03 X319.498561 Y27.038437 Z-1.000000 I0.295389 J0.700544
G03 X320.464473 Y29.290727 Z-1.000000 I-4.167113 J3.120362
G02 X321.029396 Y32.347413 Z-1.000000 I100.671949 J-17.025199
G02 X321.349217 Y33.701006 Z-1.000000 I20.032244 J-4.018551
G03 X321.076745 Y34.613487 Z-1.000000 I-0.870098 J0.237105
G03 X319.541050 Y35.301013 Z-1.000000 I-1.865671 J-2.108391
G02 X317.225851 Y36.060165 Z-1.000000 I0.720941 J6.108594
G02 X317.083229 Y36.550448 Z-1.000000 I0.180749 J0.318465
G02 X317.677356 Y37.054353 Z-1.000000 I0.929742 J-0.494005
G02 X320.803875 Y37.677720 Z-1.000000 I3.991980 J-11.869653
G02 X324.479925 Y37.569255 Z-1.000000 I1.290131 J-18.623189
G02 X324.839813 Y37.157628 Z-1.000000 I-0.052738 J-0.409249
G02 X324.760994 Y36.365681 Z-1.000000 I-4.210312 J0.019138
G02 X322.818103 Y26.854531 Z-1.000000 I-622.577371 J122.223023
G03 X321.232091 Y16.607775 Z-1.000000 I91.275562 J-19.373919
G03 X321.816361 Y14.755464 Z-1.000000 I2.461363 J-0.241922
G03 X323.287121 Y14.538740 Z-1.000000 I0.860077 J0.737874
G03 X329.312691 Y19.284353 Z-1.000000 I-21.121718 J33.016716
G02 X334.200757 Y23.641612 Z-1.000000 I61.180502 J-63.713197
G02 X334.443474 Y23.527372 Z-1.000000 I0.094473 J-0.114240
G02 X333.340101 Y20.430819 Z-1.000000 I-4.896837 J0.000000
G02 X326.551258 Y13.858916 Z-1.000000 I-31.341386 J25.583549
G02 X322.379847 Y11.457776 Z-1.000000 I-11.281490 J14.774922
G02 X320.478685 Y11.342523 Z-1.000000 I-1.117768 J2.700232
G02 X319.188734 Y12.472215 Z-1.000000 I0.530695 J1.907298
G02 X318.443403 Y16.114881 Z-1.000000 I8.528746 J3.642665
G01 X318.443403 Y19.152241 Z-1.000000
G01 X314.590456 Y15.154877 Z-1.000000
G02 X310.533517 Y11.637432 Z-1.000000 I-21.626853 J20.845597
G02 X309.047571 Y11.157513 Z-1.000000 I-1.485946 J2.060463
G02 X306.092050 Y12.387341 Z-1.000000 I0.000000 J4.166265
G02 X304.817903 Y15.414676 Z-1.000000 I3.111433 J3.091343
G03 X304.386982 Y15.919719 Z-1.000000 I-0.520299 J-0.007578
G03 X303.630388 Y15.621724 Z-1.000000 I-0.134085 J-0.769039
G02 X299.810289 Y12.090412 Z-1.000000 I-11.785447 J8.917338
G02 X296.661746 Y11.162786 Z-1.000000 I-3.171000 J4.955799
G02 X295.490708 Y11.548773 Z-1.000000 I-0.008189 J1.944547
G02 X293.952675 Y13.183545 Z-1.000000 I3.857360 J5.169994
G01 X293.952675 Y13.183545 Z-1.000000
G00 Z1.000000

(End cutting path id: path878)


(Start cutting path id: path878)
(Change tool to Cylindrical cutter)

G00 Z1.000000
G00 X293.952675 Y13.183545

G01 Z-1.000000 F100.0(Penetrate)
G02 X293.368749 Y15.353738 Z-1.000000 I3.013392 J1.974455 F400.000000
G02 X294.601629 Y25.110119 Z-1.000000 I68.878416 J-3.747834
G01 X296.578098 Y35.010662 Z-1.000000
G01 X294.310699 Y35.464145 Z-1.000000
G02 X292.131062 Y36.443494 Z-1.000000 I1.050733 J5.253677
G02 X292.041647 Y37.004054 Z-1.000000 I0.246989 J0.326809
G02 X292.775890 Y37.521967 Z-1.000000 I1.078276 J-0.749244
G02 X296.043306 Y37.957634 Z-1.000000 I3.267416 J-12.034642
G02 X299.821102 Y37.735412 Z-1.000000 I-0.000003 J-32.222522
G02 X300.043324 Y37.485412 Z-1.000000 I-0.029514 J-0.250000
G02 X299.998463 Y37.017688 Z-1.000000 I-2.460708 J0.000000
G02 X297.979904 Y26.827561 Z-1.000000 I-1181.098550 J228.668495
G03 X296.223485 Y16.667555 Z-1.000000 I176.116684 J-35.678128
G03 X296.354786 Y15.499731 Z-1.000000 I2.310697 J-0.331498
G03 X298.818254 Y14.728582 Z-1.000000 I1.537066 J0.589823
G03 X305.978889 Y22.050782 Z-1.000000 I-14.582652 J21.423301
G02 X312.034442 Y26.922961 Z-1.000000 I10.430229 J-6.764301
G02 X318.594604 Y26.793593 Z-1.000000 I3.117812 J-8.293267
G03 X319.498561 Y27.038437 Z-1.000000 I0.295389 J0.700544
G03 X320.464473 Y29.290727 Z-1.000000 I-4.167113 J3.120362
G02 X321.029396 Y32.347413 Z-1.000000 I100.671949 J-17.025199
G02 X321.349217 Y33.701006 Z-1.000000 I20.032244 J-4.018551
G03 X321.076745 Y34.613487 Z-1.000000 I-0.870098 J0.237105
G03 X319.541050 Y35.301013 Z-1.000000 I-1.865671 J-2.108391
G02 X317.225851 Y36.060165 Z-1.000000 I0.720941 J6.108594
G02 X317.083229 Y36.550448 Z-1.000000 I0.180749 J0.318465
G02 X317.677356 Y37.054353 Z-1.000000 I0.929742 J-0.494005
G02 X320.803875 Y37.677720 Z-1.000000 I3.991980 J-11.869653
G02 X324.479925 Y37.569255 Z-1.000000 I1.290131 J-18.623189
G02 X324.839813 Y37.157628 Z-1.000000 I-0.052738 J-0.409249
G02 X324.760994 Y36.365681 Z-1.000000 I-4.210312 J0.019138
G02 X322.818103 Y26.854531 Z-1.000000 I-622.577371 J122.223023
G03 X321.232091 Y16.607775 Z-1.000000 I91.275562 J-19.373919
G03 X321.816361 Y14.755464 Z-1.000000 I2.461363 J-0.241922
G03 X323.287121 Y14.538740 Z-1.000000 I0.860077 J0.737874
G03 X329.312691 Y19.284353 Z-1.000000 I-21.121718 J33.016716
G02 X334.200757 Y23.641612 Z-1.000000 I61.180502 J-63.713197
G02 X334.443474 Y23.527372 Z-1.000000 I0.094473 J-0.114240
G02 X333.340101 Y20.430819 Z-1.000000 I-4.896837 J0.000000
G02 X326.551258 Y13.858916 Z-1.000000 I-31.341386 J25.583549
G02 X322.379847 Y11.457776 Z-1.000000 I-11.281490 J14.774922
G02 X320.478685 Y11.342523 Z-1.000000 I-1.117768 J2.700232
G02 X319.188734 Y12.472215 Z-1.000000 I0.530695 J1.907298
G02 X318.443403 Y16.114881 Z-1.000000 I8.528746 J3.642665
G01 X318.443403 Y19.152241 Z-1.000000
G01 X314.590456 Y15.154877 Z-1.000000
G02 X310.533517 Y11.637432 Z-1.000000 I-21.626853 J20.845597
G02 X309.047571 Y11.157513 Z-1.000000 I-1.485946 J2.060463
G02 X306.092050 Y12.387341 Z-1.000000 I0.000000 J4.166265
G02 X304.817903 Y15.414676 Z-1.000000 I3.111433 J3.091343
G03 X304.386982 Y15.919719 Z-1.000000 I-0.520299 J-0.007578
G03 X303.630388 Y15.621724 Z-1.000000 I-0.134085 J-0.769039
G02 X299.810289 Y12.090412 Z-1.000000 I-11.785447 J8.917338
G02 X296.661746 Y11.162786 Z-1.000000 I-3.171000 J4.955799
G02 X295.490708 Y11.548773 Z-1.000000 I-0.008189 J1.944547
G02 X293.952675 Y13.183545 Z-1.000000 I3.857360 J5.169994
G01 X293.952675 Y13.183545 Z-1.000000
G00 Z1.000000

(End cutting path id: path878)


(Start cutting path id: path878)
(Change tool to Cylindrical cutter)

G00 Z1.000000
G00 X315.167509 Y18.826827

G01 Z-1.000000 F100.0(Penetrate)
G03 X318.817633 Y23.336854 Z-1.000000 I-35.678024 J32.607586 F400.000000
G03 X318.838625 Y23.965300 Z-1.000000 I-0.461905 J0.330003
G03 X316.626409 Y25.465092 Z-1.000000 I-2.778850 J-1.717422
G03 X312.052576 Y25.160497 Z-1.000000 I-1.666814 J-9.463795
G03 X309.356025 Y22.927447 Z-1.000000 I1.412473 J-4.450306
G03 X308.043357 Y17.730604 Z-1.000000 I9.630801 J-5.196844
G03 X308.676338 Y14.898687 Z-1.000000 I6.651399 J-0.000001
G03 X309.681130 Y14.363830 Z-1.000000 I0.860209 J0.404764
G03 X311.159618 Y15.024531 Z-1.000000 I-0.465752 J3.026836
G03 X315.167509 Y18.826827 Z-1.000000 I-24.633545 J29.978955
G01 X315.167509 Y18.826827 Z-1.000000
G00 Z1.000000

(End cutting path id: path878)


(Start cutting path id: path878)
(Change tool to Cylindrical cutter)

G00 Z1.000000
G00 X315.167509 Y18.826827

G01 Z-1.000000 F100.0(Penetrate)
G03 X318.817633 Y23.336854 Z-1.000000 I-35.678024 J32.607586 F400.000000
G03 X318.838625 Y23.965300 Z-1.000000 I-0.461905 J0.330003
G03 X316.626409 Y25.465092 Z-1.000000 I-2.778850 J-1.717422
G03 X312.052576 Y25.160497 Z-1.000000 I-1.666814 J-9.463795
G03 X309.356025 Y22.927447 Z-1.000000 I1.412473 J-4.450306
G03 X308.043357 Y17.730604 Z-1.000000 I9.630801 J-5.196844
G03 X308.676338 Y14.898687 Z-1.000000 I6.651399 J-0.000001
G03 X309.681130 Y14.363830 Z-1.000000 I0.860209 J0.404764
G03 X311.159618 Y15.024531 Z-1.000000 I-0.465752 J3.026836
G03 X315.167509 Y18.826827 Z-1.000000 I-24.633545 J29.978955
G01 X315.167509 Y18.826827 Z-1.000000
G00 Z1.000000

(End cutting path id: path878)


(Start cutting path id: path878)
(Change tool to Cylindrical cutter)

G00 Z1.000000
G00 X262.487470 Y55.181430

G01 Z-1.000000 F100.0(Penetrate)
G03 X264.672874 Y57.336066 Z-1.000000 I-2.558567 J4.780726 F400.000000
G03 X266.169932 Y61.221400 Z-1.000000 I-13.260224 J7.340378
G03 X266.384334 Y65.124902 Z-1.000000 I-10.924377 J2.557666
G03 X265.177738 Y66.672174 Z-1.000000 I-1.887870 J-0.228101
G03 X261.861441 Y66.838527 Z-1.000000 I-1.912297 J-4.983349
G03 X258.381605 Y64.819296 Z-1.000000 I2.061216 J-7.560287
G03 X256.895824 Y57.148935 Z-1.000000 I4.935014 J-4.935015
G03 X262.487470 Y55.181430 Z-1.000000 I3.695999 J1.574547
G01 X262.487470 Y55.181430 Z-1.000000
G00 Z1.000000

(End cutting path id: path878)


(Start cutting path id: path878)
(Change tool to Cylindrical cutter)

G00 Z1.000000
G00 X262.487470 Y55.181430

G01 Z-1.000000 F100.0(Penetrate)
G03 X264.672874 Y57.336066 Z-1.000000 I-2.558567 J4.780726 F400.000000
G03 X266.169932 Y61.221400 Z-1.000000 I-13.260224 J7.340378
G03 X266.384334 Y65.124902 Z-1.000000 I-10.924377 J2.557666
G03 X265.177738 Y66.672174 Z-1.000000 I-1.887870 J-0.228101
G03 X261.861441 Y66.838527 Z-1.000000 I-1.912297 J-4.983349
G03 X258.381605 Y64.819296 Z-1.000000 I2.061216 J-7.560287
G03 X256.895824 Y57.148935 Z-1.000000 I4.935014 J-4.935015
G03 X262.487470 Y55.181430 Z-1.000000 I3.695999 J1.574547
G01 X262.487470 Y55.181430 Z-1.000000
G00 Z1.000000

(End cutting path id: path878)


(Start cutting path id: path878)
(Change tool to Cylindrical cutter)

G00 Z1.000000
G00 X216.492646 Y62.034947

G01 Z-1.000000 F100.0(Penetrate)
G03 X219.431809 Y65.808575 Z-1.000000 I-2.281886 J4.808717 F400.000000
G03 X217.666865 Y67.957776 Z-1.000000 I-1.764945 J0.349906
G03 X213.751322 Y66.249394 Z-1.000000 I-0.000001 J-5.341322
G03 X212.042938 Y61.896369 Z-1.000000 I4.691643 J-4.353025
G03 X212.816415 Y61.146606 Z-1.000000 I0.750126 J-0.000000
G03 X216.492646 Y62.034947 Z-1.000000 I-0.287826 J9.241977
G01 X216.492646 Y62.034947 Z-1.000000
G00 Z1.000000

(End cutting path id: path878)


(Start cutting path id: path878)
(Change tool to Cylindrical cutter)

G00 Z1.000000
G00 X216.492646 Y62.034947

G01 Z-1.000000 F100.0(Penetrate)
G03 X219.431809 Y65.808575 Z-1.000000 I-2.281886 J4.808717 F400.000000
G03 X217.666865 Y67.957776 Z-1.000000 I-1.764945 J0.349906
G03 X213.751322 Y66.249394 Z-1.000000 I-0.000001 J-5.341322
G03 X212.042938 Y61.896369 Z-1.000000 I4.691643 J-4.353025
G03 X212.816415 Y61.146606 Z-1.000000 I0.750126 J-0.000000
G03 X216.492646 Y62.034947 Z-1.000000 I-0.287826 J9.241977
G01 X216.492646 Y62.034947 Z-1.000000
G00 Z1.000000

(End cutting path id: path878)


(Start cutting path id: path878)
(Change tool to Cylindrical cutter)

G00 Z1.000000
G00 X210.442930 Y54.357716

G01 Z-1.000000 F100.0(Penetrate)
G02 X209.353136 Y56.169060 Z-1.000000 I3.096545 J3.096544 F400.000000
G02 X208.842924 Y59.569487 Z-1.000000 I11.076355 J3.400426
G02 X209.494507 Y62.927844 Z-1.000000 I8.980533 J-0.000001
G02 X211.443417 Y66.018880 Z-1.000000 I9.502961 J-3.831737
G02 X217.648965 Y69.481905 Z-1.000000 I8.328276 J-7.632298
G02 X221.974336 Y68.033628 Z-1.000000 I0.874554 J-4.571223
G02 X222.868852 Y66.253773 Z-1.000000 I-2.770083 J-2.506892
G02 X222.668706 Y64.533689 Z-1.000000 I-2.769430 J-0.549440
G02 X220.317959 Y61.925834 Z-1.000000 I-5.301768 J2.415647
G02 X214.242948 Y59.584037 Z-1.000000 I-10.147958 J17.274798
G03 X212.554370 Y58.114992 Z-1.000000 I0.464968 J-2.239433
G03 X213.002942 Y56.117724 Z-1.000000 I1.801418 J-0.644422
G03 X217.366847 Y55.160770 Z-1.000000 I2.929221 J2.929220
G03 X226.363604 Y61.050158 Z-1.000000 I-8.311276 J22.513000
G03 X228.485078 Y64.201951 Z-1.000000 I-7.968840 J7.653710
G03 X230.463875 Y70.240250 Z-1.000000 I-28.225060 J12.592954
G01 X231.843532 Y76.597712 Z-1.000000
G01 X229.543269 Y77.057765 Z-1.000000
G02 X227.334965 Y78.042358 Z-1.000000 I1.076752 J5.383759
G02 X227.240961 Y78.602947 Z-1.000000 I0.245998 J0.329427
G02 X227.966487 Y79.120425 Z-1.000000 I1.062576 J-0.722430
G02 X231.243023 Y79.557826 Z-1.000000 I3.276535 J-12.053421
G02 X235.020819 Y79.335603 Z-1.000000 I-0.000003 J-32.222522
G02 X235.243041 Y79.085603 Z-1.000000 I-0.029514 J-0.250000
G02 X235.198181 Y78.617880 Z-1.000000 I-2.460721 J0.000000
G02 X233.179622 Y68.427753 Z-1.000000 I-1180.844463 J228.618074
G03 X231.436725 Y58.268876 Z-1.000000 I168.579613 J-34.151136
G03 X231.576037 Y57.043813 Z-1.000000 I2.437142 J-0.343305
G03 X233.458663 Y56.256604 Z-1.000000 I1.317260 J0.505480
G03 X238.687942 Y60.154253 Z-1.000000 I-5.775482 J13.205427
G03 X241.280284 Y64.255703 Z-1.000000 I-13.427355 J11.356803
G03 X243.271309 Y70.274246 Z-1.000000 I-27.346114 J12.385111
G01 X244.643588 Y76.597711 Z-1.000000
G01 X242.343325 Y77.057764 Z-1.000000
G02 X240.135021 Y78.042357 Z-1.000000 I1.076752 J5.383760
G02 X240.041017 Y78.602946 Z-1.000000 I0.245998 J0.329427
G02 X240.766543 Y79.120424 Z-1.000000 I1.062576 J-0.722430
G02 X244.043080 Y79.557825 Z-1.000000 I3.276535 J-12.053423
G02 X247.820875 Y79.335602 Z-1.000000 I-0.000003 J-32.222522
G02 X248.043097 Y79.085602 Z-1.000000 I-0.029514 J-0.250000
G02 X247.998237 Y78.617878 Z-1.000000 I-2.460716 J0.000000
G02 X245.979677 Y68.427751 Z-1.000000 I-1180.915033 J228.632160
G03 X244.223264 Y58.267746 Z-1.000000 I176.117644 J-35.678203
G03 X244.354561 Y57.099922 Z-1.000000 I2.310721 J-0.331501
G03 X247.175232 Y56.193763 Z-1.000000 I1.774667 J0.681004
G03 X253.135806 Y62.887113 Z-1.000000 I-9.572967 J14.525620
G02 X256.886978 Y67.472924 Z-1.000000 I12.196836 J-6.149830
G02 X260.598256 Y68.757775 Z-1.000000 I3.711277 J-4.717561
G03 X261.958173 Y69.080820 Z-1.000000 I0.000000 J3.023941
G03 X262.077326 Y69.502500 Z-1.000000 I-0.133650 J0.265440
G02 X261.980239 Y70.161490 Z-1.000000 I0.715167 J0.442010
G02 X262.406616 Y70.735198 Z-1.000000 I0.935373 J-0.249870
G02 X265.577777 Y70.885056 Z-1.000000 I1.720690 J-2.784142
G02 X268.206457 Y67.867951 Z-1.000000 I-2.304481 J-4.661482
G03 X268.804443 Y67.307861 Z-1.000000 I0.816066 J0.272013
G03 X273.678761 Y66.433752 Z-1.000000 I7.966777 J30.397911
G02 X276.913999 Y65.519953 Z-1.000000 I-0.940976 J-9.515416
G02 X276.933505 Y64.853527 Z-1.000000 I-0.164253 J-0.338306
G02 X274.953350 Y64.182747 Z-1.000000 I-2.793304 J4.987771
G02 X272.425295 Y64.205688 Z-1.000000 I-1.189045 J8.274335
G03 X270.518849 Y63.669580 Z-1.000000 I-0.376381 J-2.319352
G03 X269.335471 Y61.554544 Z-1.000000 I2.291517 J-2.670692
G02 X261.803645 Y52.689373 Z-1.000000 I-11.065967 J1.769521
G02 X253.523855 Y56.299996 Z-1.000000 I-2.130925 J6.412231
G01 X252.628155 Y58.265847 Z-1.000000
G01 X250.273817 Y55.911506 Z-1.000000
G02 X245.291005 Y53.247639 Z-1.000000 I-6.883433 J6.883434
G02 X242.308096 Y54.325737 Z-1.000000 I-0.598921 J3.008533
G02 X241.153806 Y56.245012 Z-1.000000 I6.272454 J5.079121
G02 X240.843063 Y57.769076 Z-1.000000 I3.582083 J1.524064
G03 X240.317648 Y58.108022 Z-1.000000 I-0.372035 J0.000000
G03 X238.011702 Y56.487817 Z-1.000000 I3.116088 J-6.886017
G02 X232.536531 Y53.320176 Z-1.000000 I-8.339897 J8.099607
G02 X229.508039 Y54.325738 Z-1.000000 I-0.729074 J2.867517
G02 X228.388951 Y56.257478 Z-1.000000 I5.598227 J4.533166
G02 X228.043007 Y58.108697 Z-1.000000 I4.780154 J1.851218
G03 X227.371847 Y58.624471 Z-1.000000 I-0.533762 J0.000000
G03 X224.695274 Y57.216881 Z-1.000000 I1.753802 J-6.583489
G02 X215.609965 Y52.794918 Z-1.000000 I-13.025057 J15.216854
G02 X210.442930 Y54.357716 Z-1.000000 I-1.124489 J5.605343
G01 X210.442930 Y54.357716 Z-1.000000
G00 Z1.000000

(End cutting path id: path878)


(Start cutting path id: path878)
(Change tool to Cylindrical cutter)

G00 Z1.000000
G00 X210.442930 Y54.357716

G01 Z-1.000000 F100.0(Penetrate)
G02 X209.353136 Y56.169060 Z-1.000000 I3.096545 J3.096544 F400.000000
G02 X208.842924 Y59.569487 Z-1.000000 I11.076355 J3.400426
G02 X209.494507 Y62.927844 Z-1.000000 I8.980533 J-0.000001
G02 X211.443417 Y66.018880 Z-1.000000 I9.502961 J-3.831737
G02 X217.648965 Y69.481905 Z-1.000000 I8.328276 J-7.632298
G02 X221.974336 Y68.033628 Z-1.000000 I0.874554 J-4.571223
G02 X222.868852 Y66.253773 Z-1.000000 I-2.770083 J-2.506892
G02 X222.668706 Y64.533689 Z-1.000000 I-2.769430 J-0.549440
G02 X220.317959 Y61.925834 Z-1.000000 I-5.301768 J2.415647
G02 X214.242948 Y59.584037 Z-1.000000 I-10.147958 J17.274798
G03 X212.554370 Y58.114992 Z-1.000000 I0.464968 J-2.239433
G03 X213.002942 Y56.117724 Z-1.000000 I1.801418 J-0.644422
G03 X217.366847 Y55.160770 Z-1.000000 I2.929221 J2.929220
G03 X226.363604 Y61.050158 Z-1.000000 I-8.311276 J22.513000
G03 X228.485078 Y64.201951 Z-1.000000 I-7.968840 J7.653710
G03 X230.463875 Y70.240250 Z-1.000000 I-28.225060 J12.592954
G01 X231.843532 Y76.597712 Z-1.000000
G01 X229.543269 Y77.057765 Z-1.000000
G02 X227.334965 Y78.042358 Z-1.000000 I1.076752 J5.383759
G02 X227.240961 Y78.602947 Z-1.000000 I0.245998 J0.329427
G02 X227.966487 Y79.120425 Z-1.000000 I1.062576 J-0.722430
G02 X231.243023 Y79.557826 Z-1.000000 I3.276535 J-12.053421
G02 X235.020819 Y79.335603 Z-1.000000 I-0.000003 J-32.222522
G02 X235.243041 Y79.085603 Z-1.000000 I-0.029514 J-0.250000
G02 X235.198181 Y78.617880 Z-1.000000 I-2.460721 J0.000000
G02 X233.179622 Y68.427753 Z-1.000000 I-1180.844463 J228.618074
G03 X231.436725 Y58.268876 Z-1.000000 I168.579613 J-34.151136
G03 X231.576037 Y57.043813 Z-1.000000 I2.437142 J-0.343305
G03 X233.458663 Y56.256604 Z-1.000000 I1.317260 J0.505480
G03 X238.687942 Y60.154253 Z-1.000000 I-5.775482 J13.205427
G03 X241.280284 Y64.255703 Z-1.000000 I-13.427355 J11.356803
G03 X243.271309 Y70.274246 Z-1.000000 I-27.346114 J12.385111
G01 X244.643588 Y76.597711 Z-1.000000
G01 X242.343325 Y77.057764 Z-1.000000
G02 X240.135021 Y78.042357 Z-1.000000 I1.076752 J5.383760
G02 X240.041017 Y78.602946 Z-1.000000 I0.245998 J0.329427
G02 X240.766543 Y79.120424 Z-1.000000 I1.062576 J-0.722430
G02 X244.043080 Y79.557825 Z-1.000000 I3.276535 J-12.053423
G02 X247.820875 Y79.335602 Z-1.000000 I-0.000003 J-32.222522
G02 X248.043097 Y79.085602 Z-1.000000 I-0.029514 J-0.250000
G02 X247.998237 Y78.617878 Z-1.000000 I-2.460716 J0.000000
G02 X245.979677 Y68.427751 Z-1.000000 I-1180.915033 J228.632160
G03 X244.223264 Y58.267746 Z-1.000000 I176.117644 J-35.678203
G03 X244.354561 Y57.099922 Z-1.000000 I2.310721 J-0.331501
G03 X247.175232 Y56.193763 Z-1.000000 I1.774667 J0.681004
G03 X253.135806 Y62.887113 Z-1.000000 I-9.572967 J14.525620
G02 X256.886978 Y67.472924 Z-1.000000 I12.196836 J-6.149830
G02 X260.598256 Y68.757775 Z-1.000000 I3.711277 J-4.717561
G03 X261.958173 Y69.080820 Z-1.000000 I0.000000 J3.023941
G03 X262.077326 Y69.502500 Z-1.000000 I-0.133650 J0.265440
G02 X261.980239 Y70.161490 Z-1.000000 I0.715167 J0.442010
G02 X262.406616 Y70.735198 Z-1.000000 I0.935373 J-0.249870
G02 X265.577777 Y70.885056 Z-1.000000 I1.720690 J-2.784142
G02 X268.206457 Y67.867951 Z-1.000000 I-2.304481 J-4.661482
G03 X268.804443 Y67.307861 Z-1.000000 I0.816066 J0.272013
G03 X273.678761 Y66.433752 Z-1.000000 I7.966777 J30.397911
G02 X276.913999 Y65.519953 Z-1.000000 I-0.940976 J-9.515416
G02 X276.933505 Y64.853527 Z-1.000000 I-0.164253 J-0.338306
G02 X274.953350 Y64.182747 Z-1.000000 I-2.793304 J4.987771
G02 X272.425295 Y64.205688 Z-1.000000 I-1.189045 J8.274335
G03 X270.518849 Y63.669580 Z-1.000000 I-0.376381 J-2.319352
G03 X269.335471 Y61.554544 Z-1.000000 I2.291517 J-2.670692
G02 X261.803645 Y52.689373 Z-1.000000 I-11.065967 J1.769521
G02 X253.523855 Y56.299996 Z-1.000000 I-2.130925 J6.412231
G01 X252.628155 Y58.265847 Z-1.000000
G01 X250.273817 Y55.911506 Z-1.000000
G02 X245.291005 Y53.247639 Z-1.000000 I-6.883433 J6.883434
G02 X242.308096 Y54.325737 Z-1.000000 I-0.598921 J3.008533
G02 X241.153806 Y56.245012 Z-1.000000 I6.272454 J5.079121
G02 X240.843063 Y57.769076 Z-1.000000 I3.582083 J1.524064
G03 X240.317648 Y58.108022 Z-1.000000 I-0.372035 J0.000000
G03 X238.011702 Y56.487817 Z-1.000000 I3.116088 J-6.886017
G02 X232.536531 Y53.320176 Z-1.000000 I-8.339897 J8.099607
G02 X229.508039 Y54.325738 Z-1.000000 I-0.729074 J2.867517
G02 X228.388951 Y56.257478 Z-1.000000 I5.598227 J4.533166
G02 X228.043007 Y58.108697 Z-1.000000 I4.780154 J1.851218
G03 X227.371847 Y58.624471 Z-1.000000 I-0.533762 J0.000000
G03 X224.695274 Y57.216881 Z-1.000000 I1.753802 J-6.583489
G02 X215.609965 Y52.794918 Z-1.000000 I-13.025057 J15.216854
G02 X210.442930 Y54.357716 Z-1.000000 I-1.124489 J5.605343
G01 X210.442930 Y54.357716 Z-1.000000
G00 Z1.000000

(End cutting path id: path878)


(Start cutting path id: path878)
(Change tool to Cylindrical cutter)

G00 Z1.000000
G00 X182.470911 Y50.899044

G01 Z-1.000000 F100.0(Penetrate)
G02 X182.549562 Y51.551120 Z-1.000000 I4.244076 J-0.181121 F400.000000
G02 X183.642814 Y56.757729 Z-1.000000 I273.263242 J-54.660064
G03 X184.700521 Y61.979633 Z-1.000000 I-156.136588 J34.343851
G03 X184.701837 Y63.205529 Z-1.000000 I-3.327862 J0.616523
G03 X184.087449 Y63.762575 Z-1.000000 I-0.671094 J-0.122837
G03 X182.378523 Y63.664904 Z-1.000000 I-0.508682 J-6.098902
G02 X180.403064 Y63.752038 Z-1.000000 I-0.810831 J4.054147
G02 X180.187954 Y64.153650 Z-1.000000 I0.090020 J0.306630
G02 X180.649614 Y64.771942 Z-1.000000 I1.105917 J-0.344256
G02 X183.080168 Y65.918928 Z-1.000000 I5.037722 J-7.526571
G03 X185.011312 Y67.227141 Z-1.000000 I-1.123644 J3.738143
G03 X186.261979 Y69.918945 Z-1.000000 I-4.946493 J3.934684
G03 X186.159604 Y72.640501 Z-1.000000 I-5.721493 J1.147482
G03 X185.277184 Y73.434458 Z-1.000000 I-1.067431 J-0.299018
G02 X182.309710 Y74.611527 Z-1.000000 I1.278349 J7.551941
G02 X181.641716 Y75.855771 Z-1.000000 I0.830865 J1.247499
G02 X181.878532 Y76.105206 Z-1.000000 I0.249201 J0.000541
G02 X186.125951 Y76.078893 Z-1.000000 I1.888648 J-37.957328
G02 X189.510363 Y74.960420 Z-1.000000 I-0.435065 J-6.996193
G02 X190.127059 Y73.478881 Z-1.000000 I-0.774184 J-1.191378
G03 X189.643001 Y71.157760 Z-1.000000 I16780.124291 J-3499.397645
G03 X189.142838 Y68.757783 Z-1.000000 I17973.549529 J-3748.352842
G01 X188.642836 Y66.357772 Z-1.000000
G01 X192.767962 Y66.357772 Z-1.000000
G03 X196.572257 Y66.783519 Z-1.000000 I0.000002 J17.209639
G03 X197.179810 Y67.357776 Z-1.000000 I-0.181439 J0.800478
G02 X201.334024 Y77.030458 Z-1.000000 I40.126874 J-11.505233
G02 X203.655787 Y78.357823 Z-1.000000 I2.321763 J-1.366874
G02 X204.040499 Y77.895087 Z-1.000000 I-0.000000 J-0.391290
G02 X202.875783 Y74.157805 Z-1.000000 I-16.279493 J3.023337
G03 X201.083761 Y69.925750 Z-1.000000 I104.649464 J-46.808223
G03 X200.428947 Y68.040654 Z-1.000000 I20.069090 J-8.027556
G03 X200.641744 Y66.879668 Z-1.000000 I1.250811 J-0.370734
G03 X201.551808 Y66.565752 Z-1.000000 I0.690503 J0.525689
G02 X202.276853 Y65.923656 Z-1.000000 I0.147461 J-0.563892
G02 X201.242891 Y64.284196 Z-1.000000 I-2.313415 J0.313231
G03 X198.717026 Y58.111675 Z-1.000000 I3.225716 J-4.923066
G03 X203.178784 Y55.372754 Z-1.000000 I3.544174 J0.769925
G02 X204.108409 Y55.226347 Z-1.000000 I0.297296 J-1.136865
G02 X204.294808 Y54.660264 Z-1.000000 I-0.253604 J-0.397237
G02 X202.397194 Y52.908487 Z-1.000000 I-2.721437 J1.044315
G02 X198.832662 Y53.050933 Z-1.000000 I-1.571909 J5.335135
G02 X196.820882 Y55.179231 Z-1.000000 I1.213323 J3.161867
G02 X196.298718 Y60.957747 Z-1.000000 I12.658336 J4.056695
G01 X196.690621 Y63.957760 Z-1.000000
G01 X192.423445 Y63.957760 Z-1.000000
G01 X188.156270 Y63.957761 Z-1.000000
G01 X187.248877 Y59.357740 Z-1.000000
G02 X184.945991 Y51.472922 Z-1.000000 I-45.130420 J8.902349
G02 X183.776521 Y50.499042 Z-1.000000 I-1.470100 J0.576237
G02 X182.713972 Y50.555267 Z-1.000000 I-0.418559 J2.158200
G02 X182.470911 Y50.899044 Z-1.000000 I0.100829 J0.329103
G01 X182.470911 Y50.899044 Z-1.000000
G00 Z1.000000

(End cutting path id: path878)


(Start cutting path id: path878)
(Change tool to Cylindrical cutter)

G00 Z1.000000
G00 X182.470911 Y50.899044

G01 Z-1.000000 F100.0(Penetrate)
G02 X182.549562 Y51.551120 Z-1.000000 I4.244076 J-0.181121 F400.000000
G02 X183.642814 Y56.757729 Z-1.000000 I273.263242 J-54.660064
G03 X184.700521 Y61.979633 Z-1.000000 I-156.136588 J34.343851
G03 X184.701837 Y63.205529 Z-1.000000 I-3.327862 J0.616523
G03 X184.087449 Y63.762575 Z-1.000000 I-0.671094 J-0.122837
G03 X182.378523 Y63.664904 Z-1.000000 I-0.508682 J-6.098902
G02 X180.403064 Y63.752038 Z-1.000000 I-0.810831 J4.054147
G02 X180.187954 Y64.153650 Z-1.000000 I0.090020 J0.306630
G02 X180.649614 Y64.771942 Z-1.000000 I1.105917 J-0.344256
G02 X183.080168 Y65.918928 Z-1.000000 I5.037722 J-7.526571
G03 X185.011312 Y67.227141 Z-1.000000 I-1.123644 J3.738143
G03 X186.261979 Y69.918945 Z-1.000000 I-4.946493 J3.934684
G03 X186.159604 Y72.640501 Z-1.000000 I-5.721493 J1.147482
G03 X185.277184 Y73.434458 Z-1.000000 I-1.067431 J-0.299018
G02 X182.309710 Y74.611527 Z-1.000000 I1.278349 J7.551941
G02 X181.641716 Y75.855771 Z-1.000000 I0.830865 J1.247499
G02 X181.878532 Y76.105206 Z-1.000000 I0.249201 J0.000541
G02 X186.125951 Y76.078893 Z-1.000000 I1.888648 J-37.957328
G02 X189.510363 Y74.960420 Z-1.000000 I-0.435065 J-6.996193
G02 X190.127059 Y73.478881 Z-1.000000 I-0.774184 J-1.191378
G03 X189.643001 Y71.157760 Z-1.000000 I16780.124291 J-3499.397645
G03 X189.142838 Y68.757783 Z-1.000000 I17973.549529 J-3748.352842
G01 X188.642836 Y66.357772 Z-1.000000
G01 X192.767962 Y66.357772 Z-1.000000
G03 X196.572257 Y66.783519 Z-1.000000 I0.000002 J17.209639
G03 X197.179810 Y67.357776 Z-1.000000 I-0.181439 J0.800478
G02 X201.334024 Y77.030458 Z-1.000000 I40.126874 J-11.505233
G02 X203.655787 Y78.357823 Z-1.000000 I2.321763 J-1.366874
G02 X204.040499 Y77.895087 Z-1.000000 I-0.000000 J-0.391290
G02 X202.875783 Y74.157805 Z-1.000000 I-16.279493 J3.023337
G03 X201.083761 Y69.925750 Z-1.000000 I104.649464 J-46.808223
G03 X200.428947 Y68.040654 Z-1.000000 I20.069090 J-8.027556
G03 X200.641744 Y66.879668 Z-1.000000 I1.250811 J-0.370734
G03 X201.551808 Y66.565752 Z-1.000000 I0.690503 J0.525689
G02 X202.276853 Y65.923656 Z-1.000000 I0.147461 J-0.563892
G02 X201.242891 Y64.284196 Z-1.000000 I-2.313415 J0.313231
G03 X198.717026 Y58.111675 Z-1.000000 I3.225716 J-4.923066
G03 X203.178784 Y55.372754 Z-1.000000 I3.544174 J0.769925
G02 X204.108409 Y55.226347 Z-1.000000 I0.297296 J-1.136865
G02 X204.294808 Y54.660264 Z-1.000000 I-0.253604 J-0.397237
G02 X202.397194 Y52.908487 Z-1.000000 I-2.721437 J1.044315
G02 X198.832662 Y53.050933 Z-1.000000 I-1.571909 J5.335135
G02 X196.820882 Y55.179231 Z-1.000000 I1.213323 J3.161867
G02 X196.298718 Y60.957747 Z-1.000000 I12.658336 J4.056695
G01 X196.690621 Y63.957760 Z-1.000000
G01 X192.423445 Y63.957760 Z-1.000000
G01 X188.156270 Y63.957761 Z-1.000000
G01 X187.248877 Y59.357740 Z-1.000000
G02 X184.945991 Y51.472922 Z-1.000000 I-45.130420 J8.902349
G02 X183.776521 Y50.499042 Z-1.000000 I-1.470100 J0.576237
G02 X182.713972 Y50.555267 Z-1.000000 I-0.418559 J2.158200
G02 X182.470911 Y50.899044 Z-1.000000 I0.100829 J0.329103
G01 X182.470911 Y50.899044 Z-1.000000
G00 Z1.000000

(End cutting path id: path878)


(Footer)
M5
G00 X0.0000 Y0.0000
M2
(Using default footer. To add your own footer create file "footer" in the output dir.)
(end)
%